X: 23908
T: Loch Lomond
R: reel
M: 4/4
K: Dmajor
A,B,|D2 DE F2 FE|D2 DB, A,2 A,B,|D2 DD D2 FA|B4 A3A|
B2 BA F2 FA|GF ED B,2 A,B,|D2 FA B2 AF|E4 D4||

